packages/ffe-icons/icons/open/400/sm/article_shortcut.svg

<svg xmlns="http://www.w3.org/2000/svg" height="20" viewBox="0 -960 960 960" width="20"><path d="M480-480Zm264 336H396q-15.3 0-25.65-10.29Q360-164.58 360-179.79t10.35-25.71Q380.7-216 396-216h348v-528H216v107.74q0 15.26-10.29 25.76-10.29 10.5-25.5 10.5t-25.71-10.37Q144-620.74 144-636.06v-108.19Q144-774 165.15-795T216-816h528q29.7 0 50.85 21.15Q816-773.7 816-744v528q0 29.7-21.15 50.85Q773.7-144 744-144ZM239-96q-80 0-135.5-55.5T48-287q0-55 28-100t73-69H84q-15.3 0-25.65-10.29Q48-476.58 48-491.79t10.35-25.71Q68.7-528 84-528h155q25 0 37 10.35T288-492v168q0 15.3-10.29 25.65Q267.42-288 252.21-288t-25.71-10.35Q216-308.7 216-324v-82q-42 8-69 41t-27 77q0 50.18 34.5 85.09Q189-168 239-168q15.3 0 25.65 10.29Q275-147.42 275-132.21t-10.35 25.71Q254.3-96 239-96Zm157-192h144q15.3 0 25.65-10.29Q576-308.58 576-323.79t-10.35-25.71Q555.3-360 540-360H396q-15.3 0-25.65 10.29Q360-339.42 360-324.21t10.35 25.71Q380.7-288 396-288Zm0-156h240q15.3 0 25.65-10.29Q672-464.58 672-479.79t-10.35-25.71Q651.3-516 636-516H396q-15.3 0-25.65 10.29Q360-495.42 360-480.21t10.35 25.71Q380.7-444 396-444Zm-72-156h312q15.3 0 25.65-10.29Q672-620.58 672-635.79t-10.35-25.71Q651.3-672 636-672H324q-15.3 0-25.65 10.29Q288-651.42 288-636.21t10.35 25.71Q308.7-600 324-600Z"/></svg>

<svg xmlns="http://www.w3.org/2000/svg" height="20" viewBox="0 -960 960 960" width="20"><path d="M480-480Zm264 336H396q-15.3 0-25.65-10.289-10.35-10.29-10.35-25.5Q360-195 370.35-205.5 380.7-216 396-216h348v-528H216v107.737Q216-621 205.711-610.5q-10.29 10.5-25.5 10.5Q165-600 154.5-610.368 144-620.736 144-636.062v-108.187Q144-774 165.15-795q21.15-21 50.85-21h528q29.7 0 50.85 21.15Q816-773.7 816-744v528q0 29.7-21.15 50.85Q773.7-144 744-144ZM239-96q-80 0-135.5-55.5T48-287q0-55 28-100t73-69H84q-15.3 0-25.65-10.289Q48-476.579 48-491.789 48-507 58.35-517.5 68.7-528 84-528h155q25 0 37 10.35T288-492v168q0 15.3-10.289 25.65-10.29 10.35-25.5 10.35Q237-288 226.5-298.35 216-308.7 216-324v-82q-42 8-69 41t-27 77q0 50.182 34.5 85.091Q189-168 239-168q15.3 0 25.65 10.289 10.35 10.29 10.35 25.5Q275-117 264.65-106.5 254.3-96 239-96Zm157-192h144q15.3 0 25.65-10.289 10.35-10.29 10.35-25.5Q576-339 565.65-349.5 555.3-360 540-360H396q-15.3 0-25.65 10.289-10.35 10.29-10.35 25.5Q360-309 370.35-298.5 380.7-288 396-288Zm0-156h240q15.3 0 25.65-10.289 10.35-10.29 10.35-25.5Q672-495 661.65-505.5 651.3-516 636-516H396q-15.3 0-25.65 10.289-10.35 10.29-10.35 25.5Q360-465 370.35-454.5 380.7-444 396-444Zm-72-156h312q15.3 0 25.65-10.289 10.35-10.29 10.35-25.5Q672-651 661.65-661.5 651.3-672 636-672H324q-15.3 0-25.65 10.289-10.35 10.29-10.35 25.5Q288-621 298.35-610.5 308.7-600 324-600Z"/></svg>
